X:1
T:Mrs. C. H. Morris
T:Mrs. C. H. M.
T:We Will Talk It O'er Together By and By
%%score { ( 1 2 ) | ( 3 4 ) }
L:1/8
M:4/4
K:Ab
V:1 treble 
V:2 treble 
V:3 bass 
V:4 bass 
V:1
{/x} CD | Ecc>B B<AAF | AGGF G2 EE | BB=AB cBFG | (A4 E2) cB | BAA>G (AE)AG | GF=EF d2 cB | %7
w: We are|trav\- 'ling home to Heav\- en by the|straight and nar\- row way, Which the|saints and mar\- tyrs have be\- fore us|trod; * In the|cross of Christ we glo\- ry as we|jour\- ney day by day, Press\- ing|
w: There with|Mo\- ses and E\- li\- as, and with|Pe\- ter and with Paul, We'll re\-|count the tri\- umphs of re\- deem\- ing|grace; * Best of|all, we'll see our Sav\- ior, hail and|crown him Lord of all, And u\-|
w: We will|look back o'er the jour\- ney by our|heav'n\- ly Fa\- ther planned, Know\- ing|that His will was best for you and|me; * And the|things which here per\- plex us, which we|can\- not un\- der\- stand, In that|
 AAAA AGFG | A6"^Chorus" AA | Add>d d<dAB | (c4 A2) cc | cBBB =d<dc_d | %12
w: on\- ward to the ci\- ty of our|God. We will|talk it o'er to\- geth\- er by and|by * When we|reach that ho\- ly ci\- ty, you and|
w: nite His praise to sing thro' end\- less|days. * *||||
w: glor\- ious day of days made plain will|be. * *||||
[Q:1/4=48]"^Largo" !fermata!e2 !fermata!=d2 !fermata!_d2[Q:1/4=120]"^Allegretto" cB | %13
w: I, * * How thro'|
w: |
w: |
 BAA>G (AE)AG | GF=EF d2 cB | AAAA AGFG | A6 |] %17
w: grace we've o\- ver\- come, * and have|reached our heav'n\- ly home; We will|talk it o'er to\- geth\- er by and|by.|
w: ||||
w: ||||
V:2
 A,B, | CEE>D D<CCC | DDDC D2 DD | DDCD EDDD | C6 ED | DCC>C (CC)EE | EDDD F2 FF | EEEE DDDD | %8
 C6 GG | FFF>F F<F=EE | (E4 C2) EE | =DDDD A<AAA | G2 A2 B2 ED | DCC>C (CC)EE | EDDD F2 FF | %15
 EEEE DDDD | x2 z4 |] %17
V:3
 E,E, | A,A,A,>A, A,<A,A,A, | B,B,B,=A, B,2 G,G, | G,G,^F,G, A,G,E,E, | E,6 A,A, | %5
 A,A,A,>A, (A,A,)A,A, | A,A,G,A, B,2 =A,B, | CCCC B,B,A,B, | A,6 CC | DA,A,>A, A,<A,A,A, | %10
 A,4 A,2 A,A, | A,F,F,B, B,<B,B,B, | (!fermata!B,4 E2) A,A, | A,A,A,>A, (A,A,)A,A, | %14
 A,A,G,A, B,2 =A,B, | CCCC B,B,A,B, | A,6 |] %17
V:4
 A,,A,, | A,,A,,A,,>A,, A,,<A,,A,,A,, | E,E,E,E, E,2 E,E, | E,E,E,E, E,E,E,E, | A,,6 A,,A,, | %5
w: |||||
 A,,A,,A,,>A,, (A,,A,,)C,C, | D,D,D,D, B,,2 C,D, | E,E,E,E, E,E,E,E, | A,,6 A,,A,, | %9
w: ||||
 D,D,D,>D, D,<D,D,D, | A,,2 C,E, A,2 A,A, | B,,B,,B,,B,, B,,<B,,B,,B,, | E,2 F,2 G,2 A,,A,, | %13
w: |* by and by, * *|||
 A,,A,,A,,>A,, (A,,A,,)C,C, | D,D,D,D, B,,2 C,D, | E,E,E,E, E,E,E,E, | A,,6 |] %17
w: ||||

